X:1
T:A pie del duro
T:A pie del duro
T:Giovanni Pietro Biandra
T:Source : Madrigaletti a 1, 2 e 3 voci. Libro primo---Venezia---B.Magni (Gardano)---1626. Editor : André Vierendeels (11/03/15).
T:Prima parte  a 2
T:Notes : Original clefs : C1, C4, F4, F4 Editorial accidentals above the staff Figures in BC are notated in original print In BC: "re" notated as "fa" in original print
T:b
C:Giovanni Pietro Biandra
%%score [ 1 2 3 ] { 4 | 5 }
L:1/8
Q:1/4=80
M:4/4
K:C
V:1 treble nm="Canto" snm="C"
V:2 treble-8 nm="Tenor" snm="T"
V:3 bass nm="Basso" snm="B"
V:4 treble nm="BC" snm="BC"
V:5 bass 
V:1
 z2 G2 G4- | G4 G4 | A4 A4 | B4 B4 | z2 d4 cB | A2 A4 GF | EDEF GA _B2- | B2 z2 z2 d2 | dd ^c2 d4 | %9
w: A pie|_ del|du- ro|le- gno|on- de pen-|dea, on- de pen-|dea sol per so- ver- ch'a- mor|_ l'e-|tern' a- man- te,|
 z8 | z2 AE ^F2 FF | ^GAAA A2 G2 | A4 z2 E2 | E2 E2 F2 A2 | A2 G2 A4- | A4 G4- | G4 ^F4 | G8 || %18
w: |non men for- se del|Fi- glio e- gro'e spi- ran-|te la|ge- ni- tri- ce|Ver- gi- ne|_ pian-|* ge-|a.|
 z8 | z8 | z8 | z8 | z8 | z8 | z8 | z8 | z8 | z8 | z8 | z8 | z8 | z8 | z8 | z8 | z8 | z8 | z8 | %37
w: |||||||||||||||||||
 z8 ||"^Terza parte" z2 d2 B4 | z2 e2 ^cccB | ^c2 c2 z2 d2 | c_BBA AGGF | FEED DDEF | G2 A4 A2 | %44
w: |Per- che,|per- che non pos- s'an-|ch'i- o qui|te- co'es- san- gue'in tut- to re- ma-|ner ver- san- do fuo- re co- me|fu'l pian- to'in|
 BA Bc d3 A | A4 G4 | z2 B2 cB cd | e3 c B4 | A8 || z2 d4 BB | B2 B2 z2 e2- | e2 cc B2 B2 | %52
w: lar- * ga _ ve- na'il|San- gue,|in lar- * ga _|ve- na'il San-|gue.|Deh mi- ra|Fi- glio, deh|_ mi- ra Fi- glio|
 z2 B2 ^cccc | d2 d2 z2 ^G2 | ABcd efdc | d4 B2 c2 | BBBB E2 E2 | z2 ^FF ^G2 GG | A3 A Bc d2- | %59
w: al men nell' ul- tim'|ho- re, men-|tre nel tuo lan- guir que- st'al- ma|lan- gue, al-|men nell' ul- tim' ho- re|nel- le la- gri- me|mie- stem- prat il co|
 d2 ^c2 d2 F2 | EEEE ^G2 G2 | z8 | z4 z2 EE | ^F2 FF ^G3 G | A2 A4 ^G2 | A8 |] %66
w: _ _ re, al-|men nell' ul- tim' ho- re||nel- le|la- gr- me mie stem-|prat' il co-|re.|
V:2
 z4 z2 G2 | G6 G2 | G4 ^F4 | G4 G4 | z2 _B4 AG | FEFG AB c2 | c4 _BAGF | GA_Bc deff | e4 d4 | %9
w: A|pie del|du- ro|le- gno|on de pen-|dea sol per so- ver- ch'a- mor,|on de pen- dea sol|per so- ver- ch'a- mor l'e- ter- n'a-|man- te,|
 z2 dA B2 BB | ^c2 c2 z2 d2- | dd c2 B4 | A4 z2 ^c2 | ^c2 c2 d2 A2 | _B3 B ^F2 A2 | _B6 c/B/A/G/ | %16
w: non men for- se del|Fi- glio e-|* gro'e spi- ran-|te la|ge- ni- tri- ce|Ver- gi- ne pian-|ge- * * * *|
 A8 | G8 || z8 | z8 | z8 | z8 | z8 | z8 | z8 | z8 | z8 | z8 | z8 | z8 | z8 | z8 | z8 | z8 | z8 | %35
w: |a.-||||||||||||||||||
 z8 | z8 | z8 || z8 | z8 | z8 | z8 | z8 | z8 | z8 | z8 | z8 | z8 | z8 || z8 | z4 z2 c2- | %51
w: |||||||||||||||Deh|
 c2 AA ^G2 G2 | z8 | z8 | z8 | z4 z2 e2 | dddd ^c2 c2 | z8 | z8 | z4 z2 d2 | cccc B2 B2 | %61
w: _ mi- ra Fi- glio||||al-|men nell' ul- tim' ho- re|||al-|men nell' ul- tm' ho- re|
 z4 z2 AA | B2 BB ^c3 c | d3 c B4 | A2 d2 B4 | A8 |] %66
w: nel- le|la- gri- me mie stem-|prat' il co-|re, il co-|re.|
V:3
 z8 | z8 | z8 | z8 | z8 | z8 | z8 | z8 | z8 | z8 | z8 | z8 | z8 | z8 | z8 | z8 | z8 | z8 || %18
w: ||||||||||||||||||
"^Seconda parte" z2 G,2 G,2 F,2 | E,2 D,2 C,2 B,,2 | A,,2 G,,2 F,,4 | E,,4 z2 ^G,G, | %22
w: E men- tre'il|san- gue'in cal- do|rio pio- ve-|a, dal- le|
 A,2 E,E, F,4 | F,2 F,4 F,2 | E,4 D,4 | z4 G,4- | ^G,2 G,G, A,2 A,2 | B,B,CC B,4 | A,4 z2 F,2 | %29
w: pia- ge di lui|Sa- cra- t'e|San- te|el|_ la con me- st'e|pal- li- do Sem- bian-|te, tra|
 z ^F, G,2 z ^G, A,2 | B,4 z2 E,2 | z E, F,2 z ^F, ^G,2 | A,4 z2 E,2 | F,2 F,2 E,4 | %34
w: sin- chioz- zie so-|spir, tra|sin- ghioz- zie so-|spir co-|si di- ce-|
 D,2 G,2 z ^G, A,2 | z A, B,2 C2 E,2 | G,2 F,2 E,4 | D,8 || z8 | z8 | z8 | z8 | z8 | z8 | z8 | z8 | %46
w: a tra sin- ghioz-|zie so- spir co-|si di- ce-|a|||||||||
 z8 | z8 | z8 || z8 | z4 z2 A,,2- | A,,2 A,,A,, E,2 E,2 | z8 | z8 | z8 | z4 z2 C,2 | %56
w: ||||Deh|_ mi- ra Fi- glio||||al-|
 G,G,G,G, A,2 A,2 | z8 | z8 | z4 z2 D,2 | A,A,A,A, E,2 E,2 | z2 E,E, ^F,2 F,F, | G,3 G, A,4 | %63
w: men nell' ul- tim' ho- re|||al|men nell' ul- tim' ho- re|nel- le la- gri- me|mie stem- prat'|
 D,4 E,2 E,2 | F,2 D,2 E,4 | A,,8 |] %66
w: il co- re,|il _ co-|re.|
V:4
 z8 | z8 | z8 | z8 | z8 | z8 | z8 | z8 | z8 | z8 | z8 | z8 | z8 | z8 | z8 | z8 | z8 | z8 || z8 | %19
 z8 | z8 | z8 | z8 | z8 | z8 | z8 | z8 | z8 | z8 | z8 | z8 | z8 | z8 | z8 | z8 | z8 | z8 | z8 || %38
 z8 | z8 | z8 | z8 | z8 | z8 | z8 | z8 | z8 | z8 | z8 || z8 |"^5" z8 | z8 | z8 | z8 | z8 | z8 | %56
 z8 | z8 | z8 | z8 | z8 | z8 | z8 | z8 | z8 | z8 |] %66
V:5
 G,8 | E,8 | D,8 | G,,8 | G,,8 | D,4 F,,4 | A,,2 C,2 _B,,2 G,,2 | G,,4 D,4 | A,,4 D,4 | ^F,4 ^G,4 | %10
 A,4 D,4 | E,8 | A,,4 z2 A,,2 | A,,4 D,4 | _B,,4 ^F,,4 | G,,8 | D,8 | G,,8 || G,,8 | C,6 B,,2 | %20
 A,,2 G,,2 F,,4 | E,,4 E,4 | ^C,4 D,2 =C,2 | _B,,2 A,,2 G,,4 | A,,4 D,2 C,2 | B,,2 A,,2 G,,2 F,,2 | %26
 E,,2 E,2 ^F,4 | ^G,2 A,2 E,4 | A,,2 ^C,2 D,4 | B,,2 G,,2 E,2 D,2 | G,,2 B,,2 C,4 | %31
 A,,2 D,2 B,,2 E,2 | A,,2 B,,2 ^C,4 | D,4 A,,4 | D,2 B,,2 E,2 ^C,2 | D,2 G,,2 C,4 | B,,2 D,2 A,,4 | %37
 D,8 || D,4 G,4 | E,4 A,,4 | A,4 ^F,4 | A,2 G,2 F,2 E,2 | D,2 C,2 B,,2 A,,2 | G,,2 F,,2 D,2 C,2 | %44
 B,,2 A,,2 G,,2 B,,2 | C,2 D,2 G,,2 E,2 | F,2 G,2 A,2 B,2 | C2 A,2 E,4 | A,,8 || %49
"^-natural" D,4 B,,4 | E,4 z2 A,,2- | A,,2 A,,2 E,2 E,2 | E,4 A,,4 | D,4 E,4 | F,4 C,2 A,,2 | %55
 D,4 E,2 C,2 | G,,4 A,,4 | D,4 E,4 | F,4 G,4 | A,4 D,4 | A,,4 E,4 | z2 E,2 ^F,4 | G,4 A,4 | %63
 D,4 E,4 | F,2 D,2 E,4 | A,,8 |] %66

